ui/StatusQ/src/assets/img/icons/emojiReactions/angry.svg

<svg fill="none" height="32" viewBox="0 0 32 32" width="32" xmlns="http://www.w3.org/2000/svg" xmlns:xlink="http://www.w3.org/1999/xlink"><linearGradient id="a" gradientUnits="userSpaceOnUse" x1="16" x2="16" y1="0" y2="32"><stop offset=".110497" stop-color="#ea6433"/><stop offset=".546961" stop-color="#f2b660"/><stop offset="1" stop-color="#ffba49"/></linearGradient><radialGradient id="b" cx="0" cy="0" gradientTransform="matrix(-15.5002138 22.49991078 -29.20940061 -20.12238887 21.5 6.5)" gradientUnits="userSpaceOnUse" r="1"><stop offset="0" stop-color="#ffd764" stop-opacity=".2"/><stop offset="1" stop-color="#ffb746" stop-opacity=".1"/></radialGradient><circle cx="16" cy="16" fill="url(#a)" r="16"/><circle cx="16" cy="16" fill="url(#b)" r="16"/><path d="m7.34466 11.1957c-.44418-.1903-.95857.0154-1.14893.4596s.01539.9586.45957 1.1489l2.11184.9051c.28209.1209.38392.4671.30317.7632-.04584.168-.07031.3449-.07031.5275 0 1.1046.89543 2 2 2 .8304 0 1.5426-.5061 1.845-1.2266.0594-.1415.2202-.2221.3612-.1616l.4491.1924c.4442.1904.9586-.0154 1.1489-.4595.1904-.4442-.0154-.9586-.4595-1.149z" fill="#424242"/><path d="m24.6601 11.1957c.4442-.1903.9586.0154 1.1489.4596.1904.4442-.0154.9586-.4596 1.1489l-2.1118.9051c-.2821.1209-.3839.4671-.3032.7632.0459.168.0703.3449.0703.5275 0 1.1046-.8954 2-2 2-.8303 0-1.5425-.5061-1.8449-1.2266-.0594-.1415-.2202-.2221-.3613-.1616l-.4491.1924c-.4441.1904-.9585-.0154-1.1489-.4595-.1903-.4442.0154-.9586.4596-1.149z" fill="#424242"/><path clip-rule="evenodd" d="m16 21.875c-1.7818 0-3.3518.9085-4.2714 2.2917-.2675.4024-.8107.5117-1.2131.2441-.4024-.2675-.5117-.8106-.2442-1.2131 1.2302-1.8502 3.3365-3.0727 5.7287-3.0727 2.3921 0 4.4984 1.2225 5.7286 3.0727.2676.4025.1583.9456-.2442 1.2131-.4024.2676-.9455.1583-1.2131-.2441-.9196-1.3832-2.4896-2.2917-4.2713-2.2917z" fill="#772622" fill-rule="evenodd"/></svg>

<svg width="32" height="32" viewBox="0 0 32 32" fill="none" xmlns="http://www.w3.org/2000/svg">
<circle cx="16" cy="16" r="16" fill="url(#paint0_linear)"/>
<circle cx="16" cy="16" r="16" fill="url(#paint1_radial)"/>
<path d="M7.34466 11.1957C6.90048 11.0054 6.38609 11.2111 6.19573 11.6553C6.00537 12.0995 6.21112 12.6139 6.6553 12.8042L8.76714 13.7093C9.04923 13.8302 9.15106 14.1764 9.07031 14.4725C9.02447 14.6405 9 14.8174 9 15C9 16.1046 9.89543 17 11 17C11.8304 17 12.5426 16.4939 12.845 15.7734C12.9044 15.6319 13.0652 15.5513 13.2062 15.6118L13.6553 15.8042C14.0995 15.9946 14.6139 15.7888 14.8042 15.3447C14.9946 14.9005 14.7888 14.3861 14.3447 14.1957L7.34466 11.1957Z" fill="#424242"/>
<path d="M24.6601 11.1957C25.1043 11.0054 25.6187 11.2111 25.809 11.6553C25.9994 12.0995 25.7936 12.6139 25.3494 12.8042L23.2376 13.7093C22.9555 13.8302 22.8537 14.1764 22.9344 14.4725C22.9803 14.6405 23.0047 14.8174 23.0047 15C23.0047 16.1046 22.1093 17 21.0047 17C20.1744 17 19.4622 16.4939 19.1598 15.7734C19.1004 15.6319 18.9396 15.5513 18.7985 15.6118L18.3494 15.8042C17.9053 15.9946 17.3909 15.7888 17.2005 15.3447C17.0102 14.9005 17.2159 14.3861 17.6601 14.1957L24.6601 11.1957Z" fill="#424242"/>
<path fill-rule="evenodd" clip-rule="evenodd" d="M16 21.875C14.2182 21.875 12.6482 22.7835 11.7286 24.1667C11.4611 24.5691 10.9179 24.6784 10.5155 24.4108C10.1131 24.1433 10.0038 23.6002 10.2713 23.1977C11.5015 21.3475 13.6078 20.125 16 20.125C18.3921 20.125 20.4984 21.3475 21.7286 23.1977C21.9962 23.6002 21.8869 24.1433 21.4844 24.4108C21.082 24.6784 20.5389 24.5691 20.2713 24.1667C19.3517 22.7835 17.7817 21.875 16 21.875Z" fill="#772622"/>
<defs>
<linearGradient id="paint0_linear" x1="16" y1="0" x2="16" y2="32" gradientUnits="userSpaceOnUse">
<stop offset="0.110497" stop-color="#EA6433"/>
<stop offset="0.546961" stop-color="#F2B660"/>
<stop offset="1" stop-color="#FFBA49"/>
</linearGradient>
<radialGradient id="paint1_radial" cx="0" cy="0" r="1" gradientUnits="userSpaceOnUse" gradientTransform="translate(21.5 6.5) rotate(124.563) scale(27.3222 35.4697)">
<stop stop-color="#FFD764" stop-opacity="0.2"/>
<stop offset="1" stop-color="#FFB746" stop-opacity="0.1"/>
</radialGradient>
</defs>
</svg>
